X: 31
T: No_132_Scalp_Dance.krn
N: Derived from No_132_Scalp_Dance.krn
%%abc-version 2.0
%%abcx-abcm2ps-target-version 5.9.1 (29 Sep 2008)
%%abc-creator hum2abc beta
%%abcx-conversion-date 2019/03/15 08:29:13
%%humdrum-veritas 2017174542
%%humdrum-veritas-data 440215973
%%linebreak <none>
%%barnumbers 0
L: 1/8
M: 2/4
K: C clef=bass
[K:clef=bass][M:2/4]A,2A,3/D/ | 
D4 | 
D2C3/A,/ | 
A,4 | 
D2D3/C/ | 
C4 | 
C2A,3/C/ | 
C4 | 
CD DD ||  
[M:3/4]C3A,A,2 ||  
[M:2/4]A,2E,3/A,/ | 
A,4 | 
A,2A,3/D/ | 
D4 | 
D2C3/A,/ | 
A,4 | 
D2D3/C/ | 
C4 | 
C2A,3/C/ | 
C4 | 
CD DD ||  
[M:3/4]C3A,A,2 ||  
[M:2/4]A,2E,3/A,/ | 
A,4 | 
A,2E,3/A,/ | 
A,4 |]  



